X:8807
T:L'Ord'nance
N:French
N:NB the upper part for the Ger. Flute
M:6/8
K:A
c3 {e}dcd| e2e e3| a2e a2e| {e}d2c B2A|\
c3 {e}(dcd)| e2e e3| a2e a2e| edB A3::
[c3C3] [d2D2][eE]| [f2F2][fF] [f3F3]|\
[B2B,2][c2C2][dD]| [e2E2][eE] [e3E3]|\
[e2E2][cC] [a2A2][aA]| [e2E2][cC] [a2A2][aA]| \
[eE][fF][eE] [d2D2][cC]| [c3C3] [B2B,2]z|
c3 de2| f2f f3| B3 c2d| e2e e3|\
e2c a2a| e2c a2a| efe {e}d2c| c3 B2::
c|\
dcd Bcd| cBc A2c| B2A B2c| B2B B2c| \
dcd Bcd| cBc Aec| B2A B2c| A2A A2:|
